X:51
T:Pollonesse 1832-51
O:Södermanland
R:Slängpolska
B:Notbok 1832 från Sörmlands museum
N:[[http://www.sormlandsmusikarkiv.se/noter/1832/1832.html]]
Z:Jonas Brunskog
M: 3/4
L: 1/16
K: D
|:dddd ffff a2a2 | a2d'2 d'2a2 f2a2 | gfga b2g2 e2g2 | fefg a2d2 cdef |gece d2A2 GFED | 
dddd ffff a2a2 | a2d'2 d'2a2 f2a2 | gfga b2g2 e2g2 |fefg a2d2 cdef | [1 gedc d4 D4 :| [2 gedc d4 D2g2 |]
|:fdfa gfge dcBA | Adfa ageg g2f2 | fdfa gfge dcBA | Adfa a2g2 f2g2 |
dddd ffff a2a2 | a2d'2 d'2a2 f2a2 | gfga b2g2 e2g2 | fefg a2d2 cdef |[1 gedc d4 D2g2 :| [2 gedc d4 D4 |]

